X: 181
T: No_8_Introductory_Song.krn
N: Derived from No_8_Introductory_Song.krn
%%abc-version 2.0
%%abcx-abcm2ps-target-version 5.9.1 (29 Sep 2008)
%%abc-creator hum2abc beta
%%abcx-conversion-date 2019/03/15 08:29:13
%%humdrum-veritas 279919811
%%humdrum-veritas-data 3442316911
%%linebreak <none>
%%barnumbers 0
L: 1/4
M: 3/4
K: Ab clef=bass
[K:clef=bass][M:3/4]EEE | 
EED | 
C3 | 
A,A,A, | 
A,3 | 
A,3 | 
CCC | 
(C/A,/)A,A, | 
A,3 | 
A,F,F, | 
F,3 | 
F,3 | 
CCC | 
A,A,C | 
A,3 | 
A,F,F, | 
F,3 | 
F,3 | 
F,E,E, | 
E,C,C, | 
C,3 | 
C,A,,A,, | 
A,,3 | 
A,,3 |]  



